**kern	**silbe	**harmony	**phrase	**leadinstrument	**rhyme	**timestamp	**harte
*ICvox	*	*M4/4	*	*	*	*	*M4/4
*VRlead	*	*	*	*	*	*	*
*Hstimme	*	*	*	*	*	*	*
*G:	*	*G:	*	*	*	*	*G:
*M4/4	*	*	*	*	*	*	*
*clefF4	*	*	*	*	*	*	*
r;	.	1r;	.	r	.	0	N.C.
=1	=1	=1	=1	=1	=1	=1	=1
*>Letter>A	*>Letter>A	*>Letter>A	*>Letter>A	*>Letter>A	*>Letter>A	*>Letter>A	*>Letter>A
*>Label>Intro	*>Label>Intro	*>Label>Intro	*>Label>Intro	*>Label>Intro	*>Label>Intro	*>Label>Intro	*>Label>Intro
1r	.	1N	newline	r	.	0.488	N.C.
=2	=2	=2	=2	=2	=2	=2	=2
1r	.	1N	.	r	.	3.411	N.C.
=3	=3	=3	=3	=3	=3	=3	=3
*>Letter>B2	*>Letter>B2	*>Letter>B2	*>Letter>B2	*>Letter>B2	*>Letter>B2	*>Letter>B2	*>Letter>B2
*>Label>Solo	*>Label>Solo	*>Label>Solo	*>Label>Solo	*>Label>Solo	*>Label>Solo	*>Label>Solo	*>Label>Solo
1r	.	1GM	newline	synthesizer	.	6.335	G:maj
=4	=4	=4	=4	=4	=4	=4	=4
1r	.	1DM	.	synthesizer	.	8.26	D:maj
=5	=5	=5	=5	=5	=5	=5	=5
1r	.	2Em	.	synthesizer	.	10.185	E:min
.	.	2DM	.	synthesizer	.	11.148	D:maj6
=6	=6	=6	=6	=6	=6	=6	=6
1r	.	2.CM	.	synthesizer	.	12.111	C:maj
.	.	4DM	.	synthesizer	.	13.555	D:maj
=7	=7	=7	=7	=7	=7	=7	=7
1r	.	1GM	newline	synthesizer	.	14.036	G:maj
=8	=8	=8	=8	=8	=8	=8	=8
1r	.	1DM	.	synthesizer	.	15.957	D:maj
=9	=9	=9	=9	=9	=9	=9	=9
1r	.	2Em	.	synthesizer	.	17.878	E:min
.	.	2DM	.	synthesizer	.	18.838	D:maj6
=10	=10	=10	=10	=10	=10	=10	=10
1r	.	2.CM	.	synthesizer	.	19.799	C:maj
.	.	4DM	.	synthesizer	.	21.239	D:maj
=11	=11	=11	=11	=11	=11	=11	=11
1r	.	1GM	newline	synthesizer	.	21.719	G:maj
=12	=12	=12	=12	=12	=12	=12	=12
1r	.	1DM	.	synthesizer	.	23.647	D:maj
=13	=13	=13	=13	=13	=13	=13	=13
1r	.	2Em	.	synthesizer	.	25.575	E:min
.	.	2DM	.	synthesizer	.	26.539	D:maj6
=14	=14	=14	=14	=14	=14	=14	=14
1r	.	2.CM	.	synthesizer	.	27.503	C:maj
.	.	4DM	.	synthesizer	.	28.949	D:maj
=15	=15	=15	=15	=15	=15	=15	=15
1r	.	2.CM	newline	synthesizer	.	29.431	C:maj
.	.	4DM	.	synthesizer	.	30.864	D:maj
=16	=16	=16	=16	=16	=16	=16	=16
1r	.	2.CM	.	synthesizer	.	31.341	C:maj
.	.	4DM	.	synthesizer	.	32.774	D:maj
=17	=17	=17	=17	=17	=17	=17	=17
*>Letter>B	*>Letter>B	*>Letter>B	*>Letter>B	*>Letter>B	*>Letter>B	*>Letter>B	*>Letter>B
*>Label>Verse	*>Label>Verse	*>Label>Verse	*>Label>Verse	*>Label>Verse	*>Label>Verse	*>Label>Verse	*>Label>Verse
4r	.	1GM	newline	voice	.	33.251	G:maj
16r	.	.	.	.	.	.	.
8B	May-	.	.	.	.	.	.
16c	-be	.	.	.	.	.	.
[4d	I	.	.	.	.	.	.
8d]	_	.	.	.	.	.	.
16c	did-	.	.	.	.	.	.
16B	-n't	.	.	.	.	.	.
=18	=18	=18	=18	=18	=18	=18	=18
8.B	treat	1DM	.	voice	.	35.179	D:maj
[16A	you	.	.	.	.	.	.
4A]	.	.	.	.	.	.	.
2r	.	.	.	.	.	.	.
=19	=19	=19	=19	=19	=19	=19	=19
4r	.	2Em	.	voice	.	37.106	E:min
12r	.	.	.	.	.	.	.
12G	quite	.	.	.	.	.	.
12A	as	.	.	.	.	.	.
[4B	good	2DM	.	voice	A	38.07	D:maj6
12B]	_	.	.	.	.	.	.
12A	as	.	.	.	.	.	.
12G	I	.	.	.	.	.	.
=20	=20	=20	=20	=20	=20	=20	=20
8F#	should	2.CM	.	voice	A	39.034	C:maj
[8E	_	.	.	.	.	.	.
4E_	_	.	.	.	.	.	.
8E]	_	.	.	.	.	.	.
8r	.	.	.	.	.	.	.
4r	.	4DM	.	voice	.	40.479	D:maj
=21	=21	=21	=21	=21	=21	=21	=21
4r	.	1GM	newline	voice	.	40.961	G:maj
12r	.	.	.	.	.	.	.
12B	May-	.	.	.	.	.	.
12c	-be	.	.	.	.	.	.
[4d	I	.	.	.	.	.	.
12d]	_	.	.	.	.	.	.
12c	did-	.	.	.	.	.	.
12B	-n't	.	.	.	.	.	.
=22	=22	=22	=22	=22	=22	=22	=22
8.B	love	1DM	.	voice	.	42.876	D:maj
[16A	you	.	.	.	.	.	.
4A_	_	.	.	.	.	.	.
4A]	.	.	.	.	.	.	.
4r	.	.	.	.	.	.	.
=23	=23	=23	=23	=23	=23	=23	=23
4r	.	2Em	.	voice	.	44.791	E:min
12r	.	.	.	.	.	.	.
12G	quite	.	.	.	.	.	.
12A	as	.	.	.	.	.	.
6B	of-	2DM	.	voice	.	45.748	D:maj6
6A	-ten	.	.	.	.	.	.
8G	as	.	.	.	.	.	.
[24F#	I	.	.	.	.	.	.
=24	=24	=24	=24	=24	=24	=24	=24
8F#]	_	1AM	.	voice	.	46.706	A:maj
16G	could	.	.	.	A	.	.
16F#	_	.	.	.	.	.	.
[4E	_	.	.	.	.	.	.
4E]	_	.	.	.	.	.	.
4r	.	.	.	.	.	.	.
=25	=25	=25	=25	=25	=25	=25	=25
*>Letter>C	*>Letter>C	*>Letter>C	*>Letter>C	*>Letter>C	*>Letter>C	*>Letter>C	*>Letter>C
*>Label>Chorus	*>Label>Chorus	*>Label>Chorus	*>Label>Chorus	*>Label>Chorus	*>Label>Chorus	*>Label>Chorus	*>Label>Chorus
4r	.	1CM	newline	voice	.	48.62	C:maj
12r	.	.	.	.	.	.	.
12c	Lit-	.	.	.	.	.	.
12d	-tle	.	.	.	.	.	.
8.e	things	.	.	.	.	.	.
[16d	I	.	.	.	.	.	.
12d]	_	.	.	.	.	.	.
12c	should	.	.	.	A	.	.
12B	have	.	.	.	.	.	.
=26	=26	=26	=26	=26	=26	=26	=26
8r	.	1GM	.	voice	.	50.559	G:maj
8B	said	.	.	.	.	.	.
8G	and	.	.	.	.	.	.
8Aq	_	.	.	.	.	.	.
[8B	done,	.	.	.	.	.	.
4B]	_	.	.	.	.	.	.
4r	.	.	.	.	.	.	.
=27	=27	=27	=27	=27	=27	=27	=27
4r	.	2CM	.	voice	.	52.497	C:maj
16r	.	.	.	.	.	.	.
8.c	I	.	.	.	.	.	.
8c	ne-	2GM	.	voice	.	53.467	G:maj/3
8B	-ver	.	.	.	.	.	.
8A	took	.	.	.	.	.	.
8G	the	.	.	.	.	.	.
=28	=28	=28	=28	=28	=28	=28	=28
16B	time	2Am	.	voice	B	54.436	A:min
16A	_	.	.	.	.	.	.
16G	_	.	.	.	.	.	.
[16A	_	.	.	.	.	.	.
2A]	_	.	.	.	.	.	.
.	.	2GM	.	voice	.	55.405	G:maj
4r	.	.	.	.	.	.	.
=29	=29	=29	=29	=29	=29	=29	=29
4r	.	1DM	newline	voice	.	56.374	D:maj
8A	You	.	.	.	.	.	.
8A	are	.	.	.	.	.	.
8B	al-	.	.	.	.	.	.
8B	-ways	.	.	.	.	.	.
8c	on	.	.	.	.	.	.
8c	my	.	.	.	.	.	.
=30	=30	=30	=30	=30	=30	=30	=30
8cq	_	.	.	.	.	.	.
2.d	mind!	1GM	.	voice	B	58.292	G:maj
4r	.	.	.	.	.	.	.
=31	=31	=31	=31	=31	=31	=31	=31
4r	.	2CM	.	voice	.	60.209	C:maj
8A	You	.	.	.	.	.	.
16A	are	.	.	.	.	.	.
[16c	al	.	.	.	.	.	.
8c]	_	2DM	.	voice	.	61.168	D:maj
8c	ways	.	.	.	.	.	.
8B	on	.	.	.	.	.	.
[8B	my	.	.	.	.	.	.
=32	=32	=32	=32	=32	=32	=32	=32
8B]	_	2B-M	.	voice	.	62.126	B-:maj
[8G	mind	.	.	.	B	.	.
2G]	_	.	.	.	.	.	.
.	.	2CM	.	voice	.	63.085	C:maj
4r	.	.	.	.	.	.	.
=33	=33	=33	=33	=33	=33	=33	=33
*>Letter>B	*>Letter>B	*>Letter>B	*>Letter>B	*>Letter>B	*>Letter>B	*>Letter>B	*>Letter>B
*>Label>Verse	*>Label>Verse	*>Label>Verse	*>Label>Verse	*>Label>Verse	*>Label>Verse	*>Label>Verse	*>Label>Verse
4r	.	1GM	newline	voice	.	64.044	G:maj
16r	.	.	.	.	.	.	.
8B	May-	.	.	.	.	.	.
16c	-be	.	.	.	.	.	.
[4d	I	.	.	.	.	.	.
8d]	_	.	.	.	.	.	.
16c	did-	.	.	.	.	.	.
16B	-n't	.	.	.	.	.	.
=34	=34	=34	=34	=34	=34	=34	=34
4B	hold	1DM	.	voice	C	65.959	D:maj
2A	you...	.	.	.	.	.	.
4r	.	.	.	.	.	.	.
=35	=35	=35	=35	=35	=35	=35	=35
4r	.	2Em	.	voice	.	67.875	E:min
8G	all	.	.	.	.	.	.
8A	those	.	.	.	.	.	.
8B	lone-	2DM	.	voice	.	68.833	D:maj6
8A	-ly,	.	.	.	d	.	.
8.G	lone-	.	.	.	.	.	.
[16F#	-ly	.	.	.	d	.	.
=36	=36	=36	=36	=36	=36	=36	=36
8F#]	_	2.CM	.	voice	.	69.79	C:maj
16G	times	.	.	.	B	.	.
16F#	_	.	.	.	.	.	.
2E	_	.	.	.	.	.	.
4r	.	4DM	.	voice	.	71.227	D:maj
=37	=37	=37	=37	=37	=37	=37	=37
4r	.	1GM	newline	voice	.	71.706	G:maj
12r	.	.	.	.	.	.	.
12B	And	.	.	.	.	.	.
12c	I	.	.	.	.	.	.
4d	guess	.	.	.	.	.	.
12c	I	.	.	.	.	.	.
12B	ne-	.	.	.	.	.	.
[12B	-ver	.	.	.	.	.	.
=38	=38	=38	=38	=38	=38	=38	=38
8B]	_	1DM	.	voice	.	73.627	D:maj
8B	told	.	.	.	C	.	.
8A	_	.	.	.	.	.	.
[8A	you	.	.	.	.	.	.
4A]	.	.	.	.	.	.	.
4r	.	.	.	.	.	.	.
=39	=39	=39	=39	=39	=39	=39	=39
8r	.	2Em	.	voice	.	75.549	E:min
[8G	I'm	.	.	.	.	.	.
8G]	_	.	.	.	.	.	.
8A	so	.	.	.	.	.	.
8B	hap-	2DM	.	voice	.	76.509	D:maj6
8A	-py	.	.	.	d	.	.
8G	that	.	.	.	.	.	.
8F#	you're	.	.	.	.	.	.
=40	=40	=40	=40	=40	=40	=40	=40
16G	mine	1AM	.	voice	B	77.47	A:maj
16F#	_	.	.	.	.	.	.
[8E	_	.	.	.	.	.	.
2E]	_	.	.	.	.	.	.
4r	.	.	.	.	.	.	.
=41	=41	=41	=41	=41	=41	=41	=41
*>Letter>C	*>Letter>C	*>Letter>C	*>Letter>C	*>Letter>C	*>Letter>C	*>Letter>C	*>Letter>C
*>Label>Chorus	*>Label>Chorus	*>Label>Chorus	*>Label>Chorus	*>Label>Chorus	*>Label>Chorus	*>Label>Chorus	*>Label>Chorus
4r	.	1CM	newline	voice	.	79.392	C:maj
12r	.	.	.	.	.	.	.
12c	If	.	.	.	.	.	.
12d	I	.	.	.	.	.	.
6e	made	.	.	.	.	.	.
6d	you	.	.	.	.	.	.
8c	feel	.	.	.	D	.	.
[24B	_	.	.	.	.	.	.
=42	=42	=42	=42	=42	=42	=42	=42
8B]	_	1GM	.	voice	.	81.317	G:maj
8B	se-	.	.	.	.	.	.
8G	-cond	.	.	.	.	.	.
8Aq	_	.	.	.	.	.	.
[8B	best,	.	.	.	.	.	.
4.B]	_	.	.	.	.	.	.
8r	.	.	.	.	.	.	.
=43	=43	=43	=43	=43	=43	=43	=43
8r	.	2CM	.	voice	.	83.242	C:maj
[8A	I'm	.	.	.	.	.	.
16A]	_	.	.	.	.	.	.
8.B	so	.	.	.	.	.	.
8c	sor-	2GM	.	voice	.	84.205	G:maj/3
8B	-ry	.	.	.	d	.	.
8A	I	.	.	.	.	.	.
[8G	was	.	.	.	.	.	.
=44	=44	=44	=44	=44	=44	=44	=44
8G]	_	2Am	.	voice	.	85.168	A:min
24B	blind	.	.	.	B	.	.
24A	_	.	.	.	.	.	.
24G	_	.	.	.	.	.	.
2A	_	.	.	.	.	.	.
.	.	2GM	.	voice	.	86.13	G:maj
4r	.	.	.	.	.	.	.
=45	=45	=45	=45	=45	=45	=45	=45
4r	.	1DM	newline	voice	.	87.093	D:maj
8A	You	.	.	.	.	.	.
8A	are	.	.	.	.	.	.
8B	al-	.	.	.	.	.	.
8B	-ways	.	.	.	.	.	.
8c	on	.	.	.	.	.	.
[8c	my	.	.	.	.	.	.
=46	=46	=46	=46	=46	=46	=46	=46
8c]	_	1GM	.	voice	.	89.023	G:maj
[8d	mind!	.	.	.	B	.	.
4d]	_	.	.	.	.	.	.
2r	.	.	.	.	.	.	.
=47	=47	=47	=47	=47	=47	=47	=47
4r	.	2CM	.	voice	.	90.954	C:maj
8A	You	.	.	.	.	.	.
16A	are	.	.	.	.	.	.
[16c	al-	.	.	.	.	.	.
8c]	_	2DM	.	voice	.	91.919	D:maj
8c	-ways	.	.	.	.	.	.
8B	on	.	.	.	.	.	.
[8B	my	.	.	.	.	.	.
=48	=48	=48	=48	=48	=48	=48	=48
8B]	_	2B-M	.	voice	.	92.884	B-:maj
[8G	mind	.	.	.	B	.	.
2G]	_	.	.	.	.	.	.
.	.	2CM	.	voice	.	93.849	C:maj
4r	.	.	.	.	.	.	.
=49	=49	=49	=49	=49	=49	=49	=49
*>Letter>D	*>Letter>D	*>Letter>D	*>Letter>D	*>Letter>D	*>Letter>D	*>Letter>D	*>Letter>D
*>Label>Bridge	*>Label>Bridge	*>Label>Bridge	*>Label>Bridge	*>Label>Bridge	*>Label>Bridge	*>Label>Bridge	*>Label>Bridge
8cq	_	.	.	.	.	.	.
2.d	Tell	2GM	newline	voice	.	94.815	G:maj
.	.	2DM	.	voice	.	95.771	D:maj/3
4e	_	.	.	.	.	.	.
=50	=50	=50	=50	=50	=50	=50	=50
2G	me...	2Em	.	voice	.	96.727	E:min
2r	.	2DM	.	voice	.	97.683	D:maj
=51	=51	=51	=51	=51	=51	=51	=51
8c	tell	2CM	.	voice	.	98.639	C:maj
8B	me	.	.	.	.	.	.
8A	that	.	.	.	.	.	.
8G	your	.	.	.	.	.	.
6c	sweet	2GM	.	voice	D	99.595	G:maj/3
6B	love	.	.	.	.	.	.
12A	has-	.	.	.	.	.	.
[12G	-n't	.	.	.	.	.	.
=52	=52	=52	=52	=52	=52	=52	=52
8G]	_	2Am	.	voice	.	100.552	A:min
[8A	_	.	.	.	.	.	.
2A]	died.	.	.	.	B	.	.
.	.	2DM	.	voice	.	101.508	D:maj
4r	.	.	.	.	.	.	.
=53	=53	=53	=53	=53	=53	=53	=53
2.d	Give	2GM	newline	voice	.	102.464	G:maj
.	.	2DM	.	voice	.	103.426	D:maj/3
4e	_	.	.	.	.	.	.
=54	=54	=54	=54	=54	=54	=54	=54
[2G	me	2Em	.	voice	.	104.388	E:min
8G]	.	2DM	.	voice	.	105.35	D:maj
8r	.	.	.	.	.	.	.
4r	.	.	.	.	.	.	.
=55	=55	=55	=55	=55	=55	=55	=55
8c	one	2CM	.	voice	.	106.312	C:maj
8B	more	.	.	.	.	.	.
8A	chance	.	.	.	.	.	.
8G	to	.	.	.	.	.	.
8c	keep	2GM	.	voice	D	107.274	G:maj/3
[8B	you	.	.	.	.	.	.
8B]	_	.	.	.	.	.	.
16A	sa-	.	.	.	.	.	.
[16G	-tis	.	.	.	.	.	.
=56	=56	=56	=56	=56	=56	=56	=56
8G]	_	2Am	.	voice	.	108.235	A:min
[8A	fied,	.	.	.	B	.	.
2A]	_	.	.	.	.	.	.
.	.	2DM	.	voice	.	109.197	D:maj
8r	.	.	.	.	.	.	.
[8B	sa	.	.	.	.	.	.
=57	=57	=57	=57	=57	=57	=57	=57
*>Letter>B	*>Letter>B	*>Letter>B	*>Letter>B	*>Letter>B	*>Letter>B	*>Letter>B	*>Letter>B
*>Label>Solo	*>Label>Solo	*>Label>Solo	*>Label>Solo	*>Label>Solo	*>Label>Solo	*>Label>Solo	*>Label>Solo
8B]	_	1GM	newline	synthesizer	.	110.159	G:maj
8G	tis-	.	.	.	.	.	.
[2G	-fied	.	.	.	B	.	.
8G]	_	.	.	.	.	.	.
8r	.	.	.	.	.	.	.
=58	=58	=58	=58	=58	=58	=58	=58
1r	.	1DM	.	synthesizer	.	112.071	D:maj
=59	=59	=59	=59	=59	=59	=59	=59
1r	.	2Em	.	synthesizer	.	113.984	E:min
.	.	2DM	.	synthesizer	.	114.94	D:maj6
=60	=60	=60	=60	=60	=60	=60	=60
1r	.	2.CM	.	synthesizer	.	115.896	C:maj
.	.	4DM	.	synthesizer	.	117.33	D:maj
=61	=61	=61	=61	=61	=61	=61	=61
1r	.	1GM	newline	synthesizer	.	117.808	G:maj
=62	=62	=62	=62	=62	=62	=62	=62
1r	.	1DM	.	synthesizer	.	119.737	D:maj
=63	=63	=63	=63	=63	=63	=63	=63
1r	.	2Em	.	synthesizer	.	121.666	E:min
.	.	2DM	.	synthesizer	.	122.631	D:maj6
=64	=64	=64	=64	=64	=64	=64	=64
1r	.	2.CM	.	synthesizer	.	123.596	C:maj
.	.	4DM	.	synthesizer	.	125.042	D:maj
=65	=65	=65	=65	=65	=65	=65	=65
*>Letter>C	*>Letter>C	*>Letter>C	*>Letter>C	*>Letter>C	*>Letter>C	*>Letter>C	*>Letter>C
*>Label>Chorus	*>Label>Chorus	*>Label>Chorus	*>Label>Chorus	*>Label>Chorus	*>Label>Chorus	*>Label>Chorus	*>Label>Chorus
4r	.	1CM	newline	voice	.	125.525	C:maj
16r	.	.	.	.	.	.	.
16c	Lit-	.	.	.	.	.	.
8d	-tle	.	.	.	.	.	.
6e	things	.	.	.	.	.	.
6d	I	.	.	.	.	.	.
12c	should	.	.	.	A	.	.
[12B	have	.	.	.	.	.	.
=66	=66	=66	=66	=66	=66	=66	=66
8B]	_	1GM	.	voice	.	127.444	G:maj
8B	said	.	.	.	.	.	.
8G	and	.	.	.	.	.	.
[8B	done,	.	.	.	.	.	.
4B]	_	.	.	.	.	.	.
4r	.	.	.	.	.	.	.
=67	=67	=67	=67	=67	=67	=67	=67
4r	.	2CM	.	voice	.	129.364	C:maj
16r	.	.	.	.	.	.	.
8.c	I	.	.	.	.	.	.
8c	ne-	2GM	.	voice	.	130.323	G:maj/3
8B	-ver	.	.	.	.	.	.
8A	took	.	.	.	.	.	.
8G	the	.	.	.	.	.	.
=68	=68	=68	=68	=68	=68	=68	=68
16B	time	2Am	.	voice	B	131.283	A:min
16A	_	.	.	.	.	.	.
16G	_	.	.	.	.	.	.
[16A	_	.	.	.	.	.	.
4A_	_	.	.	.	.	.	.
8A]	_	2GM	.	voice	.	132.243	G:maj
8r	.	.	.	.	.	.	.
4r	.	.	.	.	.	.	.
=69	=69	=69	=69	=69	=69	=69	=69
4r	.	1DM	newline	voice	.	133.202	D:maj
8A	You	.	.	.	.	.	.
8A	are	.	.	.	.	.	.
8B	al-	.	.	.	.	.	.
8B	-ways	.	.	.	.	.	.
8c	on	.	.	.	.	.	.
8c	my	.	.	.	.	.	.
=70	=70	=70	=70	=70	=70	=70	=70
8cq	_	.	.	.	.	.	.
2.d	mind!	1GM	.	voice	B	135.131	G:maj
4r	.	.	.	.	.	.	.
=71	=71	=71	=71	=71	=71	=71	=71
4r	.	2CM	.	voice	.	137.06	C:maj
8A	You	.	.	.	.	.	.
16A	are	.	.	.	.	.	.
[16c	al	.	.	.	.	.	.
6c]	_	2DM	.	voice	.	138.024	D:maj
6c	ways	.	.	.	.	.	.
8B	on	.	.	.	.	.	.
[24B	my	.	.	.	.	.	.
=72	=72	=72	=72	=72	=72	=72	=72
8B]	_	2B-M	.	voice	.	138.988	B-:maj
[8G	mind	.	.	.	B	.	.
2G]	_	.	.	.	.	.	.
.	.	2CM	.	voice	.	139.953	C:maj
4r	.	.	.	.	.	.	.
=73	=73	=73	=73	=73	=73	=73	=73
*>Letter>D	*>Letter>D	*>Letter>D	*>Letter>D	*>Letter>D	*>Letter>D	*>Letter>D	*>Letter>D
*>Label>Bridge	*>Label>Bridge	*>Label>Bridge	*>Label>Bridge	*>Label>Bridge	*>Label>Bridge	*>Label>Bridge	*>Label>Bridge
8cq	_	.	.	.	.	.	.
2.d	Tell	2GM	newline	voice	.	140.917	G:maj
.	.	2DM	.	voice	.	141.871	D:maj/3
4e	_	.	.	.	.	.	.
=74	=74	=74	=74	=74	=74	=74	=74
2G	me...	2Em	.	voice	D	142.824	E:min
2r	.	2DM	.	voice	.	143.778	D:maj
=75	=75	=75	=75	=75	=75	=75	=75
8c	tell	2CM	.	voice	.	144.732	C:maj
8B	me	.	.	.	D	.	.
8A	that	.	.	.	.	.	.
8G	your	.	.	.	.	.	.
6c	sweet	2GM	.	voice	D	145.686	G:maj/3
6B	love	.	.	.	.	.	.
12A	has-	.	.	.	.	.	.
[12G	-n't	.	.	.	.	.	.
=76	=76	=76	=76	=76	=76	=76	=76
8G]	_	2Am	.	voice	.	146.64	A:min
[8A	died	.	.	.	B	.	.
2A]	_	.	.	.	.	.	.
.	.	2DM	.	voice	.	147.593	D:maj
4r	.	.	.	.	.	.	.
=77	=77	=77	=77	=77	=77	=77	=77
2.d	Give	2GM	newline	voice	.	148.547	G:maj
.	.	2DM	.	voice	.	149.519	D:maj/3
4e	_	.	.	.	.	.	.
=78	=78	=78	=78	=78	=78	=78	=78
[2G	me	2Em	.	voice	D	150.491	E:min
8G]	.	2DM	.	voice	.	151.463	D:maj
8r	.	.	.	.	.	.	.
4r	.	.	.	.	.	.	.
=79	=79	=79	=79	=79	=79	=79	=79
8c	one	2CM	.	voice	.	152.435	C:maj
8B	more	.	.	.	.	.	.
8A	chance	.	.	.	.	.	.
8G	to	.	.	.	.	.	.
8c	keep	2GM	.	voice	D	153.408	G:maj/3
[8B	you	.	.	.	.	.	.
8B]	_	.	.	.	.	.	.
16A	sa-	.	.	.	.	.	.
[16G	-tis	.	.	.	.	.	.
=80	=80	=80	=80	=80	=80	=80	=80
8G]	_	2Am	.	voice	.	154.38	A:min
[8A	fied	.	.	.	B	.	.
2A]	_	.	.	.	.	.	.
.	.	2DM	.	voice	.	155.352	D:maj
4r	.	.	.	.	.	.	.
=81	=81	=81	=81	=81	=81	=81	=81
*>Letter>C2	*>Letter>C2	*>Letter>C2	*>Letter>C2	*>Letter>C2	*>Letter>C2	*>Letter>C2	*>Letter>C2
*>Label>Chorus	*>Label>Chorus	*>Label>Chorus	*>Label>Chorus	*>Label>Chorus	*>Label>Chorus	*>Label>Chorus	*>Label>Chorus
4r	.	1DM	newline	voice	.	156.324	D:maj
8A	You	.	.	.	.	.	.
8A	are	.	.	.	.	.	.
8B	al-	.	.	.	.	.	.
8B	-ways	.	.	.	.	.	.
8c	on	.	.	.	.	.	.
[8c	my	.	.	.	.	.	.
=82	=82	=82	=82	=82	=82	=82	=82
8c]	_	1GM	.	voice	.	158.228	G:maj
[8d	mind!	.	.	.	B	.	.
4d]	_	.	.	.	.	.	.
2r	.	.	.	.	.	.	.
=83	=83	=83	=83	=83	=83	=83	=83
4r	.	2CM	.	voice	.	160.133	C:maj
8A	You	.	.	.	.	.	.
16A	are	.	.	.	.	.	.
[16c	al-	.	.	.	.	.	.
8c]	_	2DM	.	voice	.	161.085	D:maj
8c	-ways	.	.	.	.	.	.
8B	on	.	.	.	.	.	.
[8B	my	.	.	.	.	.	.
=84	=84	=84	=84	=84	=84	=84	=84
8B]	_	1GM	.	voice	.	162.037	G:maj
[8G	mind	.	.	.	B	.	.
2G]	_	.	.	.	.	.	.
4r	.	.	.	.	.	.	.
=85	=85	=85	=85	=85	=85	=85	=85
4r	.	1DM	newline	voice	.	163.941	D:maj
8A	You	.	.	.	.	.	.
8A	are	.	.	.	.	.	.
8B	al-	.	.	.	.	.	.
8B	-ways	.	.	.	.	.	.
8c	on	.	.	.	.	.	.
[8c	my	.	.	.	.	.	.
=86	=86	=86	=86	=86	=86	=86	=86
8c]	_	1GM	.	voice	.	165.866	G:maj
[8d	mind!	.	.	.	.	.	.
2d]	_	.	.	.	.	.	.
4r	.	.	.	.	.	.	.
=87	=87	=87	=87	=87	=87	=87	=87
4r	.	2CM	.	voice	.	167.79	C:maj
8A	You	.	.	.	.	.	.
16A	are	.	.	.	.	.	.
[16c	al	.	.	.	.	.	.
8c]	_	2DM	.	voice	.	168.752	D:maj
8c	ways	.	.	.	.	.	.
8B	on	.	.	.	.	.	.
[8B	my	.	.	.	.	.	.
=88	=88	=88	=88	=88	=88	=88	=88
8B]	_	1GM	.	voice	.	169.714	G:maj
[8G	mind.	.	.	.	.	.	.
2G]	_	.	.	.	.	.	.
4r	.	.	.	.	.	.	.
=89	=89	=89	=89	=89	=89	=89	=89
4r	.	1DM	newline	voice	.	171.638	D:maj
8A	You	.	.	.	.	.	.
8A	are	.	.	.	.	.	.
8B	al-	.	.	.	.	.	.
8B	-ways	.	.	.	.	.	.
8c	on	.	.	.	.	.	.
[8c	my	.	.	.	.	.	.
=90	=90	=90	=90	=90	=90	=90	=90
8c]	_	1GM	.	voice	.	173.571	G:maj
[8d	mind!	.	.	.	.	.	.
2d]	_	.	.	.	.	.	.
4r	.	.	.	.	.	.	.
=91	=91	=91	=91	=91	=91	=91	=91
4r	.	2CM	.	voice	.	175.504	C:maj
8A	You	.	.	.	.	.	.
16A	are	.	.	.	.	.	.
[16c	al	.	.	.	.	.	.
8c]	_	2DM	.	voice	.	176.471	D:maj
8c	ways	.	.	.	.	.	.
8B	on	.	.	.	.	.	.
[8B	my	.	.	.	.	.	.
=92	=92	=92	=92	=92	=92	=92	=92
8B]	_	2B-M	.	voice	.	177.437	B-:maj
[8G	mind	.	.	.	.	.	.
2G]	_	.	.	.	.	.	.
.	.	2CM	.	voice	.	178.404	C:maj
4r	.	.	.	.	.	.	.
=93	=93	=93	=93	=93	=93	=93	=93
*>Letter>B2	*>Letter>B2	*>Letter>B2	*>Letter>B2	*>Letter>B2	*>Letter>B2	*>Letter>B2	*>Letter>B2
*>Label>Outro	*>Label>Outro	*>Label>Outro	*>Label>Outro	*>Label>Outro	*>Label>Outro	*>Label>Outro	*>Label>Outro
1r	.	1GM	newline	synthesizer	.	179.371	G:maj
=94	=94	=94	=94	=94	=94	=94	=94
1r	.	1DM	.	synthesizer	.	181.288	D:maj
=95	=95	=95	=95	=95	=95	=95	=95
1r	.	2Em	.	synthesizer	.	183.205	E:min
.	.	2DM	.	synthesizer	.	184.164	D:maj6
=96	=96	=96	=96	=96	=96	=96	=96
1r	.	2.CM	.	synthesizer	.	185.122	C:maj
.	.	4DM	.	synthesizer	.	186.56	D:maj
=97	=97	=97	=97	=97	=97	=97	=97
4r	.	1GM	newline	voice	.	187.039	G:maj
16r	.	.	.	.	.	.	.
8B	May-	.	.	.	.	.	.
16c	-be	.	.	.	d	.	.
[4d	I	.	.	.	.	.	.
8d]	_	.	.	.	.	.	.
16c	did-	.	.	.	.	.	.
16B	-n't	.	.	.	.	.	.
=98	=98	=98	=98	=98	=98	=98	=98
8.B	treat	1DM	.	voice	D	188.96	D:maj
[16A	you	.	.	.	.	.	.
4A]	.	.	.	.	.	.	.
2r	.	.	.	.	.	.	.
=99	=99	=99	=99	=99	=99	=99	=99
4r	.	2Em	.	voice	.	190.88	E:min
12r	.	.	.	.	.	.	.
12G	quite	.	.	.	.	.	.
12A	as	.	.	.	.	.	.
[4B	good	2DM	.	voice	A	191.841	D:maj6
12B]	_	.	.	.	.	.	.
12A	as	.	.	.	.	.	.
[12G	I	.	.	.	.	.	.
=100	=100	=100	=100	=100	=100	=100	=100
8G]	_	2.CM	.	voice	.	192.801	C:maj
8F#	should	.	.	.	A	.	.
2E	_	.	.	.	.	.	.
4r	.	4DM	.	voice	.	194.242	D:maj
=101	=101	=101	=101	=101	=101	=101	=101
4r	.	1GM	newline	voice	.	194.722	G:maj
12r	.	.	.	.	.	.	.
12B	May-	.	.	.	.	.	.
12c	-be	.	.	.	d	.	.
[4d	I	.	.	.	.	.	.
12d]	_	.	.	.	.	.	.
12c	didn-	.	.	.	.	.	.
12B	-n't	.	.	.	.	.	.
=102	=102	=102	=102	=102	=102	=102	=102
8.B	love	1DM	.	voice	.	196.643	D:maj
[16A	you	.	.	.	.	.	.
4A_	_	.	.	.	.	.	.
4A]	.	.	.	.	.	.	.
4r	.	.	.	.	.	.	.
=103	=103	=103	=103	=103	=103	=103	=103
8r	.	2Em	.	voice	.	198.565	E:min
8G	quite	.	.	.	.	.	.
8A	as	.	.	.	.	.	.
[8B	of	.	.	.	.	.	.
8B]	_	2DM	.	voice	.	199.525	D:maj6
8A	ten	.	.	.	.	.	.
8.G	as	.	.	.	.	.	.
[16F#	I	.	.	.	.	.	.
=104	=104	=104	=104	=104	=104	=104	=104
8F#]	_	2.CM	.	voice	.	200.486	C:maj
16G	could	.	.	.	A	.	.
16F#	_	.	.	.	.	.	.
2E	_	.	.	.	.	.	.
4r	.	4DM	.	voice	.	201.927	D:maj
=105	=105	=105	=105	=105	=105	=105	=105
4r	.	1GM	newline	voice	.	202.407	G:maj
16r	.	.	.	.	.	.	.
8B	May-	.	.	.	.	.	.
16c	-be	.	.	.	d	.	.
[4d	I	.	.	.	.	.	.
8d]	_	.	.	.	.	.	.
16c	did-	.	.	.	.	.	.
16B	-n't	.	.	.	.	.	.
=106	=106	=106	=106	=106	=106	=106	=106
4B	hold	1DM	.	voice	.	204.327	D:maj
2A	you...	.	.	.	.	.	.
4r	.	.	.	.	.	.	.
=107	=107	=107	=107	=107	=107	=107	=107
8r	.	2Em	.	voice	.	206.248	E:min
8G	all	.	.	.	.	.	.
8A	those	.	.	.	.	.	.
[8B	lone	.	.	.	.	.	.
8B]	_	2DM	.	voice	.	207.208	D:maj6
8A	ly,	.	.	.	d	.	.
8.G	lone-	.	.	.	.	.	.
[16F#	-ly	.	.	.	d	.	.
=108	=108	=108	=108	=108	=108	=108	=108
8F#]	_	2.CM	.	voice	.	208.168	C:maj
16G	times	.	.	.	B	.	.
16F#	_	.	.	.	.	.	.
2E	_	.	.	.	.	.	.
4r	.	4DM	.	voice	.	209.608	D:maj
=109	=109	=109	=109	=109	=109	=109	=109
8r	.	1GM	newline	voice	.	210.088	G:maj
8G	And	.	.	.	.	.	.
8d	I	.	.	.	.	.	.
[8d	guess	.	.	.	.	.	.
8d]	_	.	.	.	.	.	.
8c	I	.	.	.	.	.	.
8B	ne-	.	.	.	.	.	.
8B	-ver	.	.	.	.	.	.
=110	=110	=110	=110	=110	=110	=110	=110
4B	told	1DM	.	voice	.	212.008	D:maj
2.A	you...	.	.	.	.	.	.
=111	=111	=111	=111	=111	=111	=111	=111
6r	.	2Em	.	voice	.	213.928	E:min
6G	I'm	.	.	.	.	.	.
6A	so	.	.	.	.	.	.
8B	hap-	2DM	.	voice	.	214.888	D:maj6
8A	-py	.	.	.	d	.	.
8G	that	.	.	.	.	.	.
8F#	you're	.	.	.	.	.	.
=112	=112	=112	=112	=112	=112	=112	=112
16G	mine	2.CM	.	voice	B	215.848	C:maj
16F#	_	.	.	.	.	.	.
[8E	_	.	.	.	.	.	.
2E]	_	.	.	.	.	.	.
4r	.	4DM	.	voice	.	217.288	D:maj
=113	=113	=113	=113	=113	=113	=113	=113
*>Label>>Fadeout	*>Label>>Fadeout	*>Label>>Fadeout	*>Label>>Fadeout	*>Label>>Fadeout	*>Label>>Fadeout	*>Label>>Fadeout	*>Label>>Fadeout
1r	.	1GM	newline	synthesizer	.	217.768	G:maj
=114	=114	=114	=114	=114	=114	=114	=114
1r	.	1DM	.	synthesizer	.	219.695	D:maj
=115	=115	=115	=115	=115	=115	=115	=115
1r	.	2Em	.	synthesizer	.	221.623	E:min
.	.	2DM	.	synthesizer	.	222.587	D:maj6
=116	=116	=116	=116	=116	=116	=116	=116
1r	.	2.CM	.	synthesizer	.	223.551	C:maj
.	.	4DM	.	synthesizer	.	224.997	D:maj
=117	=117	=117	=117	=117	=117	=117	=117
4r	.	1GM	newline	synthesizer	.	225.479	G:maj
16r	.	.	.	.	.	.	.
8B	May-	.	.	.	.	.	.
16c	-be	.	.	.	.	.	.
[2d	I	.	.	.	.	.	.
=118	=118	=118	=118	=118	=118	=118	=118
2d_	_	1DM	.	synthesizer	.	226.799	D:maj
8d]	_	.	.	.	.	.	.
8e	did-	.	.	.	.	.	.
4B	-n't	.	.	.	.	.	.
=119	=119	=119	=119	=119	=119	=119	=119
8d	love	2Em	.	synthesizer	.	228.119	E:min
[8d	you!	.	.	.	.	.	.
2.d]	_	.	.	.	.	.	.
.	.	2DM	.	synthesizer	.	228.779	D:maj6
=120	=120	=120	=120	=120	=120	=120	=120
1r	.	2.CM	.	synthesizer	.	229.44	C:maj
.	.	4DM	.	synthesizer	.	230.43	D:maj
r;	.	1r;	.	r	.	230.76	N.C.
r;	.	1r;	.	r	.	235.18	N.C.
*-	*-	*-	*-	*-	*-	*-	*-
!!!BillboardChartDate: 1988/04/30
!!!BillboardPeak: 4
!!!BillboardWeeksOnChart: 14
!!!COC: Pet Shop Boys
!!!ENC: Nathaniel Condit-Schultz
!!!EST: Awating manual error checking and editing.
!!!OTL: Always On My Mind
!!!RDF**chordsym: original McGill chord annotation + (implied pitch class set, with bass pitch in first position)
!!!RDF**harmony: **recip + pitch class of root + harmonic quality
!!!RDF**leadinstrument: original McGill primary instrumentation annotation
!!!RDF**phrase: newline = linebreak in original McGill transcription
!!!RDF**timestamp: McGill audio timestamp in seconds
!!!RDT: 2017/01/12/
!!!SampleActualRank: 11
!!!SampleID#: 0184
!!!SampleTargetRank: 12
